X:1
T:Frutti d'Amore-Amar Donna
T:Giovanni Stefani
T:Source : Affetti amorosi-Canzonette ad una voce sola---Venetia---A.Vincenti---1621. Editor André Vierendeels (21/11/15).
T:Notes : Original clefs : C1, F4 Alfabetto et intavolatura per chitarra Spagnola Terza impressione (first print 1618) 
T:Amar donna superba-Frutti d'amore
C:Giovanni Stefani
%%score 1 { ( 2 3 ) | 4 }
L:1/8
Q:1/4=80
M:4/4
K:C
V:1 treble nm="Soprano" snm="S"
V:2 treble nm="BC" snm="BC"
V:3 treble 
V:4 bass 
V:1
 z4 z2 d2 | c2 B2 A3 B | G4 GGAB | c6 B2 | c2 e4 dc | d3 c B4 | A2 GF Eedc | B>c d4 ^c2 | %8
w: A-|mar Don- na su-|per- ba con di- spe-|ra- to'a-|mor, que st'e la|pe- n'a- cer-|ba _ _ _ che mi tra-|fig- * * g'il|
w: A-|mar cru- del ne-|mi- co, ti- ran- no'em-|pio ser-|vir, que- st'e quel|to- sco'an- ti-|co, _ _ _ ch'ogn- hor mi|fa _ _ lan-|
w: A-|mar un Ti- gre,'un|O- so, che non s'hu-|mi- lia|mai, chia- mar in|van sos- cor-|so, _ _ _ que- sti so-|no'i _ _ miei|
w: A-|mar un ser- pe|fie- ro, che ve- le-|na- ta|m'ha, que- st'e cru-|del pen- sie-|ro, _ _ _ che di- spe-|rar _ _ mi|
w: Dun-|que s'a- mor m'uc-|ci- de, non piu cer-|to'a- me-|ro, s'al- tri di|me fi ri-|de, _ _ _ d'al- tri'io mi|ri- * * de|
 d2 cB A3 B | c2 B2 A2 A2 | G8 |] %11
w: cor, _ _ _ che|mi traf- fig- g'il|cor.|
w: guir, _ _ _ ch'ogn-|hor mi fa lan-|guir.|
w: guai, _ _ _ que-|sti so- no'i miei|guai.|
w: fa, _ _ _ che|si- spe- rar mi|fa.|
w: ro, _ _ _ d'al-|tri'io mi ri- de-|ro.|
V:2
 B8 | A2 B2 e2 d2 | B6 G2 | A6 B2 | G2 c6 | _B2 f2 e4 | ^c4 G4 | B4 A4 | A6 d2 | c2 d2 e2 d2 | %10
 B8 |] %11
V:3
 D8 | E2 D2 G2 ^F2 | G6 E2 | F4 D4 | E2 G6 | D2 A2 ^G4 | E4 E4 | D4 E4 | ^F6 A2 | E2 G2 E2 ^F2 | %10
 G8 |] %11
V:4
 G,,8 | A,,2 B,,2 C,2 D,2 | G,,6 C,2 | F,,4 G,,4 | C,8 | G,2 A,2 E,4 | A,,4 C,4 | G,4 A,4 | %8
 D,6 D,2 | A,,2 B,,2 C,2 D,2 | G,,8 |] %11

